Adwaita++-Light/panel/16/gpmdp-tray-pause.svg

<svg height="16" width="16" xmlns="http://www.w3.org/2000/svg">
  <path d="m2.7128906 1c-.1805156.0039374-.3373058.0700173-.4550781.1894531-.1673155.1671227-.2578125.4389799-.2578125.7890625v12.0390624c0 .349995.098211.619987.2578125.78711.2431732.246742.6234375.271219 1.0566406.007812l10.1386719-6.03125c.730291-.429619.730291-1.1289127 0-1.5664062l-.410156-.2460938c-.000817.0005937-.155937-.0924313-.185547-.109375-.517769-2.2094881-2.490054-3.859375-4.857422-3.859375-.4603052 0-.8970097.0827634-1.3203125.1992188-1.5463493-.9266527-3.3652344-2.0175782-3.3652344-2.0175782-.2166015-.1273107-.4210469-.18566554-.6015625-.1816406zm5.2871094 3 .0195312.0019531c1.5831212.00777 2.9367728.9410135 3.5781248 2.28125.03538.073732.07669.1451274.107422.2207031.000767.0018901.001153.0039694.001953.0058594.0779.1935196.138416.3944356.185547.6015625.01391.060217.024046.1208071.035156.1816407.041144.2302086.072266.4649762.072266.7070312 0 .1690928-.026515.3305646-.046875.4941406l-5.40625 3.2226564c-.017964-.007-.0368515-.012251-.0546875-.019531-.1175415-.04791-.2288531-.106093-.3398437-.164063-.0784051-.04111-.1571891-.0809-.2324219-.126953-.092138-.05619-.1789828-.118671-.265625-.181641-.085277-.06218-.1700147-.124788-.25-.193359-.0765-.06547-.1496284-.134305-.2207031-.205078-.0734293-.073195-.1453025-.147875-.2128907-.226563-.0687181-.080005-.1331904-.162976-.1953125-.248047-.0617765-.084585-.1187137-.172281-.1738281-.261718-.0525609-.08534-.1043177-.170601-.1503906-.2597659-.0477052-.0923496-.0883592-.188788-.1289063-.2851562-.0410355-.0974575-.0838834-.1940761-.1171875-.2949219-.0365077-.1109056-.0610595-.2268427-.0878906-.3417969-.0207745-.0885044-.0477393-.1752933-.0625-.265625-.0338754-.2094812-.0546875-.4235343-.0546875-.6425781 0-.2761424.0287478-.5462503.0820312-.8066406.372985-1.8227325 1.9849721-3.1933595 3.9179688-3.1933594zm0 2a2 2 0 0 0 -2 2 2 2 0 0 0 2 2 2 2 0 0 0 2-2 2 2 0 0 0 -2-2zm3 5v5h2v-5zm3 0v5h2v-5z" fill="#444"/>
</svg>

<svg xmlns="http://www.w3.org/2000/svg" width="16" height="16" version="1.1">
 <defs>
  <style id="current-color-scheme" type="text/css">
   .ColorScheme-Text { color:#444444; } .ColorScheme-Highlight { color:#4285f4; }
  </style>
 </defs>
 <path style="fill:currentColor" class="ColorScheme-Text" d="M 2.7128906 1 C 2.532375 1.0039374 2.3755848 1.0700173 2.2578125 1.1894531 C 2.090497 1.3565758 2 1.628433 2 1.9785156 L 2 14.017578 C 2 14.367573 2.098211 14.637565 2.2578125 14.804688 C 2.5009857 15.05143 2.88125 15.075907 3.3144531 14.8125 L 13.453125 8.78125 C 14.183416 8.351631 14.183416 7.6523373 13.453125 7.2148438 L 13.042969 6.96875 C 13.042152 6.9693437 12.887032 6.8763187 12.857422 6.859375 C 12.339653 4.6498869 10.367368 3 8 3 C 7.5396948 3 7.1029903 3.0827634 6.6796875 3.1992188 C 5.1333382 2.2725661 3.3144531 1.1816406 3.3144531 1.1816406 C 3.0978516 1.0543299 2.8934062 0.99597506 2.7128906 1 z M 8 4 L 8.0195312 4.0019531 C 9.6026524 4.0097231 10.956304 4.9429666 11.597656 6.2832031 C 11.633036 6.3569351 11.674346 6.4283305 11.705078 6.5039062 C 11.705845 6.5057963 11.706231 6.5078756 11.707031 6.5097656 C 11.784931 6.7032852 11.845447 6.9042012 11.892578 7.1113281 C 11.906488 7.1715451 11.916624 7.2321352 11.927734 7.2929688 C 11.968878 7.5231774 12 7.757945 12 8 C 12 8.1690928 11.973485 8.3305646 11.953125 8.4941406 L 6.546875 11.716797 C 6.528911 11.709797 6.5100235 11.704546 6.4921875 11.697266 C 6.374646 11.649356 6.2633344 11.591173 6.1523438 11.533203 C 6.0739387 11.492093 5.9951547 11.452303 5.9199219 11.40625 C 5.8277839 11.35006 5.7409391 11.287579 5.6542969 11.224609 C 5.5690199 11.162429 5.4842822 11.099821 5.4042969 11.03125 C 5.3277969 10.96578 5.2546685 10.896945 5.1835938 10.826172 C 5.1101645 10.752977 5.0382913 10.678297 4.9707031 10.599609 C 4.901985 10.519604 4.8375127 10.436633 4.7753906 10.351562 C 4.7136141 10.266977 4.6566769 10.179281 4.6015625 10.089844 C 4.5490016 10.004504 4.4972448 9.919243 4.4511719 9.8300781 C 4.4034667 9.7377285 4.3628127 9.6412901 4.3222656 9.5449219 C 4.2812301 9.4474644 4.2383822 9.3508458 4.2050781 9.25 C 4.1685704 9.1390944 4.1440186 9.0231573 4.1171875 8.9082031 C 4.096413 8.8196987 4.0694482 8.7329098 4.0546875 8.6425781 C 4.0208121 8.4330969 4 8.2190438 4 8 C 4 7.7238576 4.0287478 7.4537497 4.0820312 7.1933594 C 4.4550162 5.3706269 6.0670033 3.9999999 8 4 z M 8 6 A 2 2 0 0 0 6 8 A 2 2 0 0 0 8 10 A 2 2 0 0 0 10 8 A 2 2 0 0 0 8 6 z M 11 11 L 11 16 L 13 16 L 13 11 L 11 11 z M 14 11 L 14 16 L 16 16 L 16 11 L 14 11 z"/>
</svg>
